X: 214
T: Polska efter Daniel Fridh
O: Hlsingland
S: efter Daniel Fridh
R: Polska
Z: Hkan Lidn, 2008-09-28
M: 3/4
L: 1/8
K: A
A,>C EA ce | a>g fe dc | cB/c/ dE GB | BA/B/ cA E/F/E | A,>C EA ce | a>g fe dc | 
cB/c/ dE GB | BA/G/ A4 :: a>g fA df | a>f eA ce | f>e dE GB | AE/A/ cA/c/ ea |
a>g fA df | a>f eA ce | f>e dE GB | BA/G/ A4 :: E>G BE GB | AA/c/ eA ce | 
d>c df af | fe/d/ e4 | E>G BE GB | AA/c/ eA ce | d>c Be gb | ba/g/ a4 :|]
